Origami/64x64/apps/komorebi.svg

<svg width="64" height="64" version="1" xmlns="http://www.w3.org/2000/svg">
 <path d="m60 31-22 22h-31c-1.662 0-3-1.338-3-3v2c0 1.662 1.338 3 3 3h31l22-22v-2z" style="opacity:.2"/>
 <path d="m60 32v-19c0-1.662-1.338-3-3-3h-50c-1.662 0-3 1.338-3 3v38c0 1.662 1.338 3 3 3h31z" style="fill:#8847bd"/>
 <path d="m56 34.322v-20.322h-48v36h32z" style="fill:#a675ce"/>
 <path d="m26.038028 23.000576a1.9927259 2.2315018 0 0 0 -2.038028 2.230644v7.769322 7.769324a1.9927259 2.2315018 0 0 0 2.98859 1.931492l6.006516-3.884662 6.008474-3.884664a1.9927259 2.2315018 0 0 0 0 -3.865148l-6.008474-3.884662-6.006516-3.88466a1.9927259 2.2315018 0 0 0 -0.950562 -0.296986z" style="opacity:.2"/>
 <path d="m7 10c-1.662 0-3 1.338-3 3v1c0-1.662 1.338-3 3-3h50c1.662 0 3 1.338 3 3v-1c0-1.662-1.338-3-3-3h-50z" style="fill:#ffffff;opacity:.1"/>
 <path d="m26.038028 22.000576a1.9927259 2.2315018 0 0 0 -2.038028 2.230644v7.769322 7.769324a1.9927259 2.2315018 0 0 0 2.98859 1.931492l6.006516-3.884662 6.008474-3.884664a1.9927259 2.2315018 0 0 0 0 -3.865148l-6.008474-3.884662-6.006516-3.88466a1.9927259 2.2315018 0 0 0 -0.950562 -0.296986z" style="fill:#ffffff"/>
 <path d="m60 32h-19.25c-1.518 0-2.75 1.232-2.75 2.75v19.25z" style="fill:#cfb2dd"/>
 <path d="m40.75 32c-1.518 0-2.75 1.232-2.75 2.75v1c0-1.518 1.232-2.75 2.75-2.75h18.25l1-1h-19.25z" style="fill:#ffffff;opacity:.2"/>
</svg>

<svg xmlns="http://www.w3.org/2000/svg" width="64" height="64" version="1">
 <path style="opacity:0.2" d="M 60,31 38,53 7,53 C 5.338,53 4,51.662 4,50 l 0,2 c 0,1.662 1.338,3 3,3 l 31,0 22,-22 0,-2 z"/>
 <path style="fill:#8847bd" d="m 60,32 0,-19 c 0,-1.662 -1.338,-3 -3,-3 L 7,10 c -1.662,0 -3,1.338 -3,3 l 0,38 c 0,1.662 1.338,3 3,3 l 31,0 z"/>
 <path style="fill:#a675ce" d="M 56,34.322 56,14 8,14 8,50 40,50 Z"/>
 <path style="opacity:0.2" d="M 26.038028,23.000576 A 1.9927259,2.2315018 0 0 0 24,25.23122 l 0,7.769322 0,7.769324 a 1.9927259,2.2315018 0 0 0 2.98859,1.931492 l 6.006516,-3.884662 6.008474,-3.884664 a 1.9927259,2.2315018 0 0 0 0,-3.865148 l -6.008474,-3.884662 -6.006516,-3.88466 a 1.9927259,2.2315018 0 0 0 -0.950562,-0.296986 z"/>
 <path style="opacity:0.1;fill:#ffffff" d="M 7 10 C 5.338 10 4 11.338 4 13 L 4 14 C 4 12.338 5.338 11 7 11 L 57 11 C 58.662 11 60 12.338 60 14 L 60 13 C 60 11.338 58.662 10 57 10 L 7 10 z"/>
 <path style="fill:#ffffff" d="M 26.038028,22.000576 A 1.9927259,2.2315018 0 0 0 24,24.23122 l 0,7.769322 0,7.769324 a 1.9927259,2.2315018 0 0 0 2.98859,1.931492 l 6.006516,-3.884662 6.008474,-3.884664 a 1.9927259,2.2315018 0 0 0 0,-3.865148 l -6.008474,-3.884662 -6.006516,-3.88466 a 1.9927259,2.2315018 0 0 0 -0.950562,-0.296986 z"/>
 <path style="fill:#cfb2dd" d="M 60,32 40.75,32 C 39.232,32 38,33.232 38,34.75 L 38,54 Z"/>
 <path style="opacity:0.2;fill:#ffffff" d="M 40.75 32 C 39.232 32 38 33.232 38 34.75 L 38 35.75 C 38 34.232 39.232 33 40.75 33 L 59 33 L 60 32 L 40.75 32 z"/>
</svg>
